X:701
T: "Lied der Geisselbrueder"
N: Z1382
O: Europa, Mitteleuropa, Deutschland, Niederrhein
R: Erzaehlung, Romanze, religioes
M: 2/4
L: 1/16
K: A
E2 | A2G2A2B2 | =c2A2B2z
E | A2=G2G=FE2 | ED=C2z2
E2 | A2G2A2B2 | =c2A2B2z
E | A2=G2G=FE2 | ED=C2z2
BB | =cedB=G3A | AGA2B2
E2 | A2B2=c2B2 | A4B2
B2 | =cedB=G2A2 | AGA2B2
E2 | AGAB=cBAc | B4A2
